X:1
T:When the Bridegroom Comes
T:William James Kirkpatrick (1838-1921)
T:When the Bridegroom Comes
T:Public Domain
T:Public Domain
T:Public Domain
C:William James Kirkpatrick (1838-1921)
Z:Public Domain
%%score ( 1 2 ) ( 3 4 )
L:1/8
M:4/4
K:E
V:1 treble 
V:2 treble 
V:3 bass 
V:4 bass 
V:1
 E>[EF] | [EG][EG][EG][EG] [EG][EG][EF]E | [EG]2 [GB]2 [GB]2 E>[EF] | %3
w: 1.~Will our|be filled and rea- dy, When the Bride-|comes? And our lights be|
w: 2.~Shall we|a wel- come sound- ing, When the Bride-|comes? And a shout of|
w: 3.~Don’t de-|our prep- a- ra- tion Till the Bride-|comes, Lest there be a|
w: 4.~It may|a time of sor- row, When the Bride-|comes; If our oil we|
w: 5.~Oh, there’ll|a glor- ious meet- ing, When the Bride-|comes; And a hal- le-|
 [EG][EG][EG][EG] [GB][EG][B,F]E | [EG]2 [DF]2 [DF]2 [EG]>[FA] | [GB]4- [GB][GB][EG][GB] | %6
w: and stea- dy, When the Bride- groom comes?|the night, that sol- emn|night, * Will our lamps|
w: re- sound- ing, When the Bride- groom comes?|the night, that sol- emn|night, * Will our lamps|
w: a- ra- tion, When the Bride- groom comes.|the night, that sol- emn|night, * Will our lamps|
w: to bor- row, When the Bride- groom comes.|the night, that sol- emn|night, * Will our lamps|
w: jah greet- ing, When the Bride- groom comes.|the night, that joy- ful|night, * With our lamps|
 (GGBA [Ge]2) E>[EF] | [EG][GB] [GB]>[Ac] [GB]2 [EG]>E | [DF]2 [B,E]2 [B,E]4 |: %9
w: be * * * * burn- ing|When the Bride- groom comes? * *||
w: be * * * * burn- ing|When the Bride- groom comes? O be|y! O be|
w: be * * * * burn- ing|When the Bride- groom comes? ~ ~|~ ~ ~|
w: be * * * * burn- ing|When the Bride- groom comes? * *||
w: all * * * * burn- ing|When the Bride- groom comes. * *||
"^Refrain" [EG]3 [B,F] [B,F] [B,E]3 | [DB]3 [FA] [FA] [EG]3 | [Ge]3 [GB] [Ac][GB][EB][EB] | %12
w: |||
w: read- y! O be|read- y when the|Bride- groom comes! * * *|
w: ~ ~ ~ ~|~ ~ ~ ~|~ ~ ~ Bride- groom comes.|
w: |||
w: |||
 [EG]2 [DF]2 [DF]4 :| [EG]2 [DF]2 [B,E]4 |] %14
w: ||
w: ||
w: ||
w: ||
w: ||
V:2
 E3/2 x/ | x7 E | x6 E3/2 x/ | x7 E | x8 | x8 | e4- x E3/2 x3/2 | x15/2 E/ | x8 |: x8 | x8 | x8 | %12
w: lamps|groom|clear|In|||bright, *||||||
w: hear|groom|joy|In|||bright, *|read-|||||
w: lay|groom|sep-|In|||bright, *|~|||||
w: be|groom|hope|In|||bright, *||||||
w: be|groom|lu-|In|||bright, *||||||
 x8 :| x8 |] %14
w: ||
w: ||
w: ||
w: ||
w: ||
V:3
 [E,G,]>[E,A,] | [E,B,][E,B,][E,B,][E,B,] [E,B,][E,B,][E,A,][E,G,] | %2
 [E,B,]2 [E,E]2 [E,E]2 [E,G,]>[E,A,] | [E,B,][E,B,][E,B,][E,B,] [E,E][E,B,][D,B,][C,^A,] | %4
 [B,,B,]2 [B,,B,]2 [B,,B,]2 z2 | z2 [E,E]>[E,E] [E,E][E,B,][E,B,][E,B,] | %6
 (B,B,=DC) [E,B,]2 [E,G,]>[E,A,] | [E,B,][E,E] [E,E]>[E,E] [E,E]2 [E,B,]>[E,G,] | %8
 [B,,A,]2 [E,G,]2 [E,G,]4 |: [E,B,]3 [E,A,] [E,A,] [E,G,]3 | [B,,F,]3 [B,,B,] [E,B,] [E,B,]3 | %11
 [E,B,]3 [E,E] [E,E][E,E][G,B,][E,G,] | B,2 B,2 [B,,B,]4 :| B,2 [B,,A,]2 [E,G,]4 |] %14
V:4
 x2 | x8 | x8 | x8 | x8 | x8 | E,4- x4 | x8 | x8 |: x8 | x8 | x8 | B,2 B,2 x4 :| B,2 x6 |] %14

